svg/world.svg

<?xml version="1.0" encoding="UTF-8"?>
<svg xmlns="http://www.w3.org/2000/svg" xmlns:xlink="http://www.w3.org/1999/xlink" width="32" height="32" viewBox="0 0 32 32">
<path fill="none" stroke-width="3.048" stroke-linecap="round" stroke-linejoin="round" stroke="rgb(64.313725%, 64.313725%, 64.313725%)" stroke-opacity="1" stroke-miterlimit="4" d="M 29.714844 16 C 29.714844 23.574219 23.574219 29.714844 16 29.714844 M 29.714844 16 C 29.714844 8.425781 23.574219 2.285156 16 2.285156 M 29.714844 16 L 2.285156 16 M 16 29.714844 C 8.425781 29.714844 2.285156 23.574219 2.285156 16 M 16 29.714844 C 18.523438 29.714844 20.570312 23.574219 20.570312 16 C 20.570312 8.425781 18.523438 2.285156 16 2.285156 M 16 29.714844 C 13.476562 29.714844 11.429688 23.574219 11.429688 16 C 11.429688 8.425781 13.476562 2.285156 16 2.285156 M 2.285156 16 C 2.285156 8.425781 8.425781 2.285156 16 2.285156 "/>
</svg>

<svg role="img" viewBox="0 0 32 32" height="32" width="32" xmlns="http://www.w3.org/2000/svg"><path d="M29.715 16c0 7.574-6.14 13.715-13.715 13.715M29.715 16c0-7.574-6.14-13.715-13.715-13.715M29.715 16H2.285M16 29.715c-7.574 0-13.715-6.14-13.715-13.715M16 29.715c2.523 0 4.57-6.14 4.57-13.715 0-7.574-2.047-13.715-4.57-13.715m0 27.43c-2.523 0-4.57-6.14-4.57-13.715 0-7.574 2.047-13.715 4.57-13.715M2.285 16C2.285 8.426 8.425 2.285 16 2.285" fill="none" stroke="rgb(64.313725%, 64.313725%, 64.313725%)" stroke-linecap="round" stroke-linejoin="round" stroke-width="3.048"/></svg>
